svg/300/rounded/arrow_circle_left.svg

<svg xmlns="http://www.w3.org/2000/svg" width="48" height="48" viewBox="0 -960 960 960"><path d="M430.306-457.308H600q9.904 0 16.298-6.398 6.394-6.398 6.394-16.307 0-9.91-6.394-16.294-6.394-6.385-16.298-6.385H430.306L496-568.385q6.692-6.564 6.692-15.743T496-600q-6.693-6.692-15.872-6.692T464.385-600l-99.769 99.769q-8.615 8.616-8.615 20.231 0 11.615 8.615 20.231L464.385-360q6.692 6.692 15.807 6.499 9.115-.192 15.808-6.884 6.692-6.692 6.692-15.871 0-9.18-6.692-15.744l-65.694-65.308Zm49.761 357.307q-78.221 0-147.397-29.92-69.176-29.92-120.989-81.71-51.814-51.791-81.747-120.936-29.933-69.146-29.933-147.366 0-78.836 29.92-148.204 29.92-69.369 81.71-120.682 51.791-51.314 120.936-81.247 69.146-29.933 147.366-29.933 78.836 0 148.204 29.92 69.369 29.92 120.682 81.21 51.314 51.291 81.247 120.629 29.933 69.337 29.933 148.173 0 78.221-29.92 147.397-29.92 69.176-81.21 120.989-51.291 51.814-120.629 81.747-69.337 29.933-148.173 29.933ZM480-145.385q139.692 0 237.154-97.769Q814.615-340.923 814.615-480q0-139.692-97.461-237.154Q619.692-814.615 480-814.615q-139.077 0-236.846 97.461Q145.385-619.692 145.385-480q0 139.077 97.769 236.846T480-145.385ZM480-480Z"/></svg>

<svg xmlns="http://www.w3.org/2000/svg" width="48" height="48" viewBox="0 -960 960 960"><path d="M430.31-457.31H600q9.9 0 16.3-6.4 6.39-6.39 6.39-16.3t-6.39-16.3q-6.4-6.38-16.3-6.38H430.31l65.69-65.7q6.69-6.56 6.69-15.74T496-600q-6.69-6.69-15.87-6.69T464.39-600l-99.77 99.77Q356-491.62 356-480q0 11.62 8.62 20.23L464.39-360q6.69 6.69 15.8 6.5 9.12-.19 15.81-6.89 6.69-6.69 6.69-15.87T496-392l-65.69-65.31ZM480.07-100q-78.22 0-147.4-29.92t-120.99-81.71q-51.81-51.79-81.75-120.94Q100-401.71 100-479.93q0-78.84 29.92-148.21t81.71-120.68q51.79-51.31 120.94-81.25Q401.71-860 479.93-860q78.84 0 148.21 29.92t120.68 81.21q51.31 51.29 81.25 120.63Q860-558.9 860-480.07q0 78.22-29.92 147.4t-81.21 120.99q-51.29 51.81-120.63 81.75Q558.9-100 480.07-100Zm-.07-45.39q139.69 0 237.15-97.76 97.46-97.77 97.46-236.85 0-139.69-97.46-237.15-97.46-97.46-237.15-97.46-139.08 0-236.85 97.46-97.76 97.46-97.76 237.15 0 139.08 97.76 236.85 97.77 97.76 236.85 97.76ZM480-480Z"/></svg>
